packages/foundations/assets/icons/functional/images/food/beverage_16.svg

<svg width="16" height="16" viewBox="0 0 16 16" fill="none" xmlns="http://www.w3.org/2000/svg">
<g clip-path="url(#clip0_185_1066)">
<path fill-rule="evenodd" clip-rule="evenodd" d="M3.21754 7.2L8.01626 7.20144C8.51546 7.20144 8.87426 7.65384 8.81186 8.12192L8.03122 13.7016C7.98434 14.0923 7.6405 14.3844 7.24978 14.4H4.04586C3.65514 14.3844 3.3113 14.0923 3.24874 13.7016L2.41011 8.12208C2.33203 7.6376 2.71738 7.2 3.21754 7.2ZM7.11027 8.80344H4.14611L4.73243 12.8058H6.54531L7.11027 8.80344ZM8.80002 3.2H10.4039L10.3988 3.9984C10.3988 4.6848 10.586 5.35568 10.9136 5.96408L11.6469 7.32136C11.8653 7.72696 11.9981 8.16408 11.9981 8.60168V12.8L10.3971 12.8029C9.95946 12.8029 9.60002 13.1467 9.60002 13.6C9.60002 14.0376 9.95946 14.397 10.3971 14.397L12.7951 14.4C13.2327 14.4 13.6 14.0249 13.6 13.603V8.60168C13.6 7.8984 13.4047 7.19512 13.0608 6.57L12.3263 5.19464C12.1231 4.81952 11.9981 4.422 11.9981 4V2.8816C11.9981 2.17824 11.4198 1.6 10.7009 1.6H8.49722C7.77826 1.6 7.20002 2.17824 7.20002 2.8816L7.20066 4.014C7.20066 4.482 7.52826 4.80968 7.99626 4.80968C8.46434 4.80968 8.80002 4.468 8.80002 4V3.2Z" fill="#1A1C1F"/>
</g>
<defs>
<clipPath id="clip0_185_1066">
<rect width="16" height="16" fill="white"/>
</clipPath>
</defs>
</svg>

<svg xmlns="http://www.w3.org/2000/svg" width="16" height="16" fill="none"><g clip-path="url(#a)"><path fill="#1A1C1F" fill-rule="evenodd" d="m3.218 7.2 4.798.001c.5 0 .858.453.796.92l-.78 5.58c-.048.391-.391.683-.782.699H4.046a.845.845 0 0 1-.797-.698l-.839-5.58c-.078-.484.307-.922.808-.922M7.11 8.803H4.146l.586 4.003h1.813zM8.8 3.2h1.604l-.005.798c0 .687.187 1.358.515 1.966l.733 1.357c.218.406.351.843.351 1.28V12.8l-1.6.003a.79.79 0 0 0-.798.797.8.8 0 0 0 .797.797l2.398.003a.82.82 0 0 0 .805-.797V8.602c0-.704-.195-1.407-.54-2.032l-.734-1.375c-.203-.375-.328-.773-.328-1.195V2.882A1.29 1.29 0 0 0 10.701 1.6H8.497A1.29 1.29 0 0 0 7.2 2.882v1.132c0 .468.328.796.796.796S8.8 4.468 8.8 4z" clip-rule="evenodd"/></g><defs><clipPath id="a"><path fill="#fff" d="M0 0h16v16H0z"/></clipPath></defs></svg>
